X:4334
L:1/8
M:3/8
K:D
 (f/g/f/g/) | (ba).f | (ag).e | d (f/g/f/g/) | (ba).f | (ag).e | d (d/f/d/f/) | d :: (c/d/c/d/) | 
 (fe).c | (ed).B | (dc).A | A (c/d/c/d/) | (fe).c | (ed).B | A(A/c/A/c/) | A (f/g/f/g/) | (ba).f | 
 (ag).e | (gf).d | d(f/g/f/g/) | (ba).f | (ag).e | d (d/f/d/f/) | d ||

